src/assets/img/logos/logo-serie--raio-x--white.svg

<svg fill="none" height="92" viewBox="0 0 312 92" width="312" xmlns="http://www.w3.org/2000/svg"><path d="m13.8777 10.4819-11.04724 7.3235c-.27106.1799-.58801.285-.91659.304-.32859.019-.65632-.0489-.947742-.1964-.29142-.1474-.535435-.3688-.705716-.6401-.1702811-.2714-.26034184-.5824-.26041636-.8995v-14.63409c.00044008-.31695.09067486-.62778.26096136-.898991.170286-.27121.414173-.492516.705389-.640073.291214-.1475561.618704-.2157658.947194-.19728079.32849.01848499.64552.12296179.91692.30217879l11.04724 7.323506c.2408.15995.4377.37384.5736.62328.136.24945.2071.52699.2071.80874 0 .28174-.0711.55928-.2071.80873-.1359.2494-.3328.4633-.5736.6233" fill="#e52228" transform="matrix(2 0 0 2 231.801 34.2088)"/><g fill="#fff"><path d="m12.6277 20.3622-5.80381-9.0888h-4.7948l-1.312548 9.0888h-.7165469l2.9487649-20.36220289h7.46454c3.672 0 6.2681 1.38042289 5.7614 5.52166289-.6273 4.22725-3.5225 5.75174-7.36637 5.75174h-1.13397l5.82164 9.0888zm-3.73231-9.721c3.85281 0 6.02701-1.50509 6.56941-5.09159.538-3.6811-1.7322-4.945411-5.1051-4.889507h-6.77922l-1.4621 9.981097z" transform="matrix(2 0 0 2 47.2234 29.0136)"/><path d="m16.8399 20.3622h-.8059l-1.7322-7.2762h-9.7637l-3.732273 7.2762h-.80582809l10.71460109-20.36220289h1.3394zm-2.6564-7.9965-2.7478-11.826006h-.1786l-6.33059 11.826006z" transform="matrix(2 0 0 2 78.5102 29.0136)"/><path d="m.745561 20.3622h-.74556699l2.95546599-20.36220289h.74556z" transform="matrix(2 0 0 2 118.82 29.0136)"/><path d="m1.39273 5.75172c.53796-3.82516 4.59836-5.7517221 8.68777-5.7517221 3.9421 0 7.5896 1.9351621 7.0471 5.7517221l-1.3393 9.40488c-.538 3.8252-4.7769 5.7818-8.71904 5.7818-3.9421 0-7.55383-1.9566-7.0158652-5.7818zm-.598237 9.40918c-.477695 3.393 2.776877 5.0615 6.359587 5.0615 3.58272 0 7.40652-1.6728 7.88422-5.0615l1.3393-9.40487c.5067-3.56715-2.9019-5.061522-6.45111-5.061522-3.54923 0-7.28372 1.552432-7.79267 5.061522z" transform="matrix(2 0 0 2 131.977 28.4374)"/><path d="m27.0277.00000079h10.1678l-12.1232 16.71549921 7.2837 16.6187h-10.1678l-4.4488-11.3465-7.527 11.3465h-10.21240381l12.12320381-16.6187-7.28376-16.71549921h10.21686l4.2524 11.39589921z" transform="matrix(2 0 0 2 160.678 13.8893)"/></g></svg>

<svg width="108" height="34" viewBox="0 0 108 34" fill="none" xmlns="http://www.w3.org/2000/svg">
<path d="M13.8777 10.4819L2.83046 17.8054C2.5594 17.9853 2.24245 18.0904 1.91387 18.1094C1.58528 18.1284 1.25755 18.0605 0.966128 17.913C0.674708 17.7656 0.430693 17.5442 0.260412 17.2729C0.0901309 17.0015 7.0159e-05 16.6905 -4.3598e-06 16.3734V1.73931C0.000435723 1.42236 0.0906705 1.11153 0.260957 0.840319C0.431243 0.569109 0.67513 0.347803 0.966346 0.200246C1.25756 0.0526899 1.58505 -0.0155198 1.91354 0.00296521C2.24203 0.0214502 2.55906 0.125927 2.83046 0.305144L13.8777 7.62865C14.1185 7.7886 14.3154 8.00249 14.4513 8.25193C14.5873 8.50138 14.6584 8.77892 14.6584 9.06067C14.6584 9.34241 14.5873 9.61995 14.4513 9.8694C14.3154 10.1188 14.1185 10.3327 13.8777 10.4927" transform="translate(92.5117 10.7155)" fill="#E52228"/>
<path d="M12.6277 20.3622L6.82389 11.2734H2.02909L0.716542 20.3622H-4.90478e-06L2.94876 -2.8872e-06H10.4133C14.0853 -2.8872e-06 16.6814 1.38042 16.1747 5.52166C15.5474 9.74891 12.6522 11.2734 8.80833 11.2734H7.67436L13.496 20.3622H12.6277ZM8.89539 10.6412C12.7482 10.6412 14.9224 9.13611 15.4648 5.54961C16.0028 1.86851 13.7326 0.604199 10.3597 0.660103H3.58048L2.11838 10.6412H8.89539Z" transform="translate(0.2229 8.1178)" fill="white"/>
<path d="M16.8399 20.3622H16.034L14.3018 13.086H4.5381L0.805827 20.3622H-1.08995e-06L10.7146 -2.8872e-06H12.054L16.8399 20.3622ZM14.1835 12.3657L11.4357 0.539694H11.2571L4.92651 12.3657H14.1835Z" transform="translate(15.8662 8.1178)" fill="white"/>
<path d="M0.745561 20.3622H-5.99473e-06L2.95546 -2.8872e-06H3.70102L0.745561 20.3622Z" transform="translate(36.0208 8.1178)" fill="white"/>
<path d="M1.39273 5.75172C1.93069 1.92656 5.99109 -2.09978e-06 10.0805 -2.09978e-06C14.0226 -2.09978e-06 17.6701 1.93516 17.1276 5.75172L15.7883 15.1566C15.2503 18.9818 11.0114 20.9384 7.06926 20.9384C3.12716 20.9384 -0.48457 18.9818 0.0533948 15.1566L1.39273 5.75172ZM0.794493 15.1609C0.316798 18.5539 3.57137 20.2224 7.15408 20.2224C10.7368 20.2224 14.5606 18.5496 15.0383 15.1609L16.3776 5.75603C16.8843 2.18888 13.4757 0.694508 9.92649 0.694508C6.37726 0.694508 2.64277 2.24694 2.13382 5.75603L0.794493 15.1609Z" transform="translate(42.5994 7.82971)" fill="white"/>
<path d="M27.0277 7.87418e-07H37.1955L25.0723 16.7155L32.356 33.3342H22.1882L17.7394 21.9877L10.2124 33.3342H-3.81483e-06L12.1232 16.7155L4.83944 7.87418e-07H15.0563L19.3087 11.3959L27.0277 7.87418e-07Z" transform="translate(56.95 0.555664)" fill="white"/>
</svg>
